static/img/kroki/3adc10d5846336010f80fd2cde594e75.svg

<?xml version="1.0" encoding="us-ascii" standalone="no"?><svg xmlns="http://www.w3.org/2000/svg" xmlns:xlink="http://www.w3.org/1999/xlink" contentStyleType="text/css" height="252px" preserveAspectRatio="none" style="width:542px;height:252px;" version="1.1" viewBox="0 0 542 252" width="542px" zoomAndPan="magnify"><defs/><g><!--class kubernetes_endpoint--><g id="elem_kubernetes_endpoint"><rect codeLine="22" fill="#3D176E" height="39.7891" id="kubernetes_endpoint" rx="2.5" ry="2.5" style="stroke:#000D19;stroke-width:0.5;" width="219" x="7" y="106.79"/><ellipse cx="22" cy="126.6845" fill="#ADD1B2" rx="11" ry="11" style="stroke:#181818;stroke-width:1.0;"/><path d="M24.9688,132.3252 Q24.3906,132.622 23.75,132.7627 Q23.1094,132.9189 22.4063,132.9189 Q19.9063,132.9189 18.5781,131.2783 Q17.2656,129.622 17.2656,126.497 Q17.2656,123.372 18.5781,121.7158 Q19.9063,120.0595 22.4063,120.0595 Q23.1094,120.0595 23.75,120.2158 Q24.4063,120.372 24.9688,120.6689 L24.9688,123.3877 Q24.3438,122.8095 23.75,122.5439 Q23.1563,122.2627 22.5313,122.2627 Q21.1875,122.2627 20.5,123.3408 Q19.8125,124.4033 19.8125,126.497 Q19.8125,128.5908 20.5,129.6689 Q21.1875,130.7314 22.5313,130.7314 Q23.1563,130.7314 23.75,130.4658 Q24.3438,130.1845 24.9688,129.6064 L24.9688,132.3252 Z " fill="#000000"/><text fill="#D9B8FF" font-family="Helvetica" font-size="17" lengthAdjust="spacing" textLength="177" x="41" y="132.5698">kubernetes_endpoint</text></g><!--class kubernetes_endpoint_slice--><g id="elem_kubernetes_endpoint_slice"><rect codeLine="24" fill="#3D176E" height="39.7891" id="kubernetes_endpoint_slice" rx="2.5" ry="2.5" style="stroke:#000D19;stroke-width:0.5;" width="264" x="147.5" y="206.58"/><ellipse cx="162.5" cy="226.4745" fill="#ADD1B2" rx="11" ry="11" style="stroke:#181818;stroke-width:1.0;"/><path d="M165.4688,232.1152 Q164.8906,232.412 164.25,232.5527 Q163.6094,232.7089 162.9063,232.7089 Q160.4063,232.7089 159.0781,231.0683 Q157.7656,229.412 157.7656,226.287 Q157.7656,223.162 159.0781,221.5058 Q160.4063,219.8495 162.9063,219.8495 Q163.6094,219.8495 164.25,220.0058 Q164.9063,220.162 165.4688,220.4589 L165.4688,223.1777 Q164.8438,222.5995 164.25,222.3339 Q163.6563,222.0527 163.0313,222.0527 Q161.6875,222.0527 161,223.1308 Q160.3125,224.1933 160.3125,226.287 Q160.3125,228.3808 161,229.4589 Q161.6875,230.5214 163.0313,230.5214 Q163.6563,230.5214 164.25,230.2558 Q164.8438,229.9745 165.4688,229.3964 L165.4688,232.1152 Z " fill="#000000"/><text fill="#D9B8FF" font-family="Helvetica" font-size="17" lengthAdjust="spacing" textLength="222" x="181.5" y="232.3598">kubernetes_endpoint_slice</text></g><!--class kubernetes_namespace--><g id="elem_kubernetes_namespace"><rect codeLine="26" fill="#3D176E" height="39.7891" id="kubernetes_namespace" rx="2.5" ry="2.5" style="stroke:#000D19;stroke-width:0.5;" width="239" x="160" y="7"/><ellipse cx="175" cy="26.8945" fill="#ADD1B2" rx="11" ry="11" style="stroke:#181818;stroke-width:1.0;"/><path d="M177.9688,32.5352 Q177.3906,32.832 176.75,32.9727 Q176.1094,33.1289 175.4063,33.1289 Q172.9063,33.1289 171.5781,31.4883 Q170.2656,29.832 170.2656,26.707 Q170.2656,23.582 171.5781,21.9258 Q172.9063,20.2695 175.4063,20.2695 Q176.1094,20.2695 176.75,20.4258 Q177.4063,20.582 177.9688,20.8789 L177.9688,23.5977 Q177.3438,23.0195 176.75,22.7539 Q176.1563,22.4727 175.5313,22.4727 Q174.1875,22.4727 173.5,23.5508 Q172.8125,24.6133 172.8125,26.707 Q172.8125,28.8008 173.5,29.8789 Q174.1875,30.9414 175.5313,30.9414 Q176.1563,30.9414 176.75,30.6758 Q177.3438,30.3945 177.9688,29.8164 L177.9688,32.5352 Z " fill="#000000"/><text fill="#D9B8FF" font-family="Helvetica" font-size="17" lengthAdjust="spacing" textLength="197" x="194" y="32.7798">kubernetes_namespace</text></g><!--class kubernetes_service--><g id="elem_kubernetes_service"><rect codeLine="28" fill="#3D176E" height="39.7891" id="kubernetes_service" rx="2.5" ry="2.5" style="stroke:#000D19;stroke-width:0.5;" width="203" x="332" y="106.79"/><ellipse cx="347" cy="126.6845" fill="#ADD1B2" rx="11" ry="11" style="stroke:#181818;stroke-width:1.0;"/><path d="M349.9688,132.3252 Q349.3906,132.622 348.75,132.7627 Q348.1094,132.9189 347.4063,132.9189 Q344.9063,132.9189 343.5781,131.2783 Q342.2656,129.622 342.2656,126.497 Q342.2656,123.372 343.5781,121.7158 Q344.9063,120.0595 347.4063,120.0595 Q348.1094,120.0595 348.75,120.2158 Q349.4063,120.372 349.9688,120.6689 L349.9688,123.3877 Q349.3438,122.8095 348.75,122.5439 Q348.1563,122.2627 347.5313,122.2627 Q346.1875,122.2627 345.5,123.3408 Q344.8125,124.4033 344.8125,126.497 Q344.8125,128.5908 345.5,129.6689 Q346.1875,130.7314 347.5313,130.7314 Q348.1563,130.7314 348.75,130.4658 Q349.3438,130.1845 349.9688,129.6064 L349.9688,132.3252 Z " fill="#000000"/><text fill="#D9B8FF" font-family="Helvetica" font-size="17" lengthAdjust="spacing" textLength="161" x="366" y="132.5698">kubernetes_service</text></g><!--link kubernetes_endpoint to kubernetes_endpoint_slice--><g id="link_kubernetes_endpoint_kubernetes_endpoint_slice"><path codeLine="30" d="M148.7,147.01 C175.72,163.21 214.3,186.36 242.57,203.32 " fill="none" id="kubernetes_endpoint-to-kubernetes_endpoint_slice" style="stroke:#1A83AF;stroke-width:2.0;"/><polygon fill="#1A83AF" points="246.36,206.2,240.7005,198.1396,242.0725,203.6275,236.5846,204.9995,246.36,206.2" style="stroke:#1A83AF;stroke-width:2.0;"/></g><!--link kubernetes_namespace to kubernetes_endpoint--><g id="link_kubernetes_namespace_kubernetes_endpoint"><path codeLine="31" d="M247.3,47.22 C220.28,63.42 181.7,86.57 153.43,103.53 " fill="none" id="kubernetes_namespace-to-kubernetes_endpoint" style="stroke:#1A83AF;stroke-width:2.0;"/><polygon fill="#1A83AF" points="149.64,106.41,159.4154,105.2095,153.9275,103.8375,155.2995,98.3496,149.64,106.41" style="stroke:#1A83AF;stroke-width:2.0;"/></g><!--link kubernetes_namespace to kubernetes_endpoint_slice--><g id="link_kubernetes_namespace_kubernetes_endpoint_slice"><path codeLine="32" d="M279.5,47.2 C279.5,83.2 279.5,160.55 279.5,200.48 " fill="none" id="kubernetes_namespace-to-kubernetes_endpoint_slice" style="stroke:#1A83AF;stroke-width:2.0;"/><polygon fill="#1A83AF" points="279.5,205.09,283.5,196.09,279.5,200.09,275.5,196.09,279.5,205.09" style="stroke:#1A83AF;stroke-width:2.0;"/></g><!--link kubernetes_namespace to kubernetes_service--><g id="link_kubernetes_namespace_kubernetes_service"><path codeLine="33" d="M309.93,47.22 C335.34,63.36 371.6,86.38 398.27,103.32 " fill="none" id="kubernetes_namespace-to-kubernetes_service" style="stroke:#1A83AF;stroke-width:2.0;"/><polygon fill="#1A83AF" points="402.14,106.41,396.6801,98.2131,397.917,103.733,392.397,104.9699,402.14,106.41" style="stroke:#1A83AF;stroke-width:2.0;"/></g><!--link kubernetes_service to kubernetes_endpoint_slice--><g id="link_kubernetes_service_kubernetes_endpoint_slice"><path codeLine="34" d="M403.07,147.01 C377.66,163.15 341.4,186.17 314.73,203.11 " fill="none" id="kubernetes_service-to-kubernetes_endpoint_slice" style="stroke:#1A83AF;stroke-width:2.0;"/><polygon fill="#1A83AF" points="310.86,206.2,320.603,204.7599,315.083,203.523,316.3199,198.0031,310.86,206.2" style="stroke:#1A83AF;stroke-width:2.0;"/></g><!--SRC=[dP9FIyD04CNl-HGBEHSQYoQz235Gz5B4UXCfs-nikoJP3REJbYf-TnFRofe_hVIwxpVxtXjcemGmA4hQimAA5Q3rRAPqoP4NB4OqkyJa1fal9PUJi2tEZAQBm9mNm1uXtmAfbBU9rurACmtMiXj7Uk1fjaPJQN7udf1hMqkWoQ6Id5iR4w5QLGHE635THLAsoVQd_aG4uHrqC8C2y8YCnsCHJDl8HQkplN-9XVe05hXBcnk2JioEnGzrDcL3E24xHK_wOCPdBeJIQtRhlBqSCg46_FE-s71XTWqjUMvT6qk0O6XVGj9f1TD8oB0NVXg2qsPpBAlgGzL0O9UWHMcK9lRfVGshIvkh5FePNM-WlgmXsG9kJxDzlgCtFuYZIJnx7zqFMtkzXfTchvkwnl7Oqkif_Z-xRm00]--></g></svg>

<svg xmlns="http://www.w3.org/2000/svg" width="542" height="252" preserveAspectRatio="none" style="width:542px;height:252px"><rect width="219" height="39.789" x="7" y="106.79" fill="#3D176E" rx="2.5" ry="2.5" style="stroke:#000d19;stroke-width:.5"/><circle cx="22" cy="126.684" r="11" fill="#ADD1B2" style="stroke:#181818;stroke-width:1"/><path d="M24.969 132.325q-.578.297-1.219.438-.64.156-1.344.156-2.5 0-3.828-1.64-1.312-1.657-1.312-4.782t1.312-4.781q1.328-1.656 3.828-1.656.703 0 1.344.156.656.156 1.219.453v2.719q-.625-.579-1.219-.844-.594-.281-1.219-.281-1.343 0-2.031 1.078-.688 1.062-.688 3.156 0 2.094.688 3.172.688 1.062 2.031 1.062.625 0 1.219-.265.594-.281 1.219-.86v2.72Z"/><text x="41" y="132.57" fill="#D9B8FF" font-family="Helvetica" font-size="17" textLength="177">kubernetes_endpoint</text><rect width="264" height="39.789" x="147.5" y="206.58" fill="#3D176E" rx="2.5" ry="2.5" style="stroke:#000d19;stroke-width:.5"/><circle cx="162.5" cy="226.475" r="11" fill="#ADD1B2" style="stroke:#181818;stroke-width:1"/><path d="M165.469 232.115q-.578.297-1.219.438-.64.156-1.344.156-2.5 0-3.828-1.64-1.312-1.657-1.312-4.782t1.312-4.781q1.328-1.656 3.828-1.656.703 0 1.344.156.656.156 1.219.453v2.719q-.625-.578-1.219-.844-.594-.281-1.219-.281-1.344 0-2.031 1.078-.688 1.062-.688 3.156 0 2.094.688 3.172.688 1.062 2.031 1.062.625 0 1.219-.265.594-.281 1.219-.86v2.72Z"/><text x="181.5" y="232.36" fill="#D9B8FF" font-family="Helvetica" font-size="17" textLength="222">kubernetes_endpoint_slice</text><rect width="239" height="39.789" x="160" y="7" fill="#3D176E" rx="2.5" ry="2.5" style="stroke:#000d19;stroke-width:.5"/><circle cx="175" cy="26.895" r="11" fill="#ADD1B2" style="stroke:#181818;stroke-width:1"/><path d="M177.969 32.535q-.578.297-1.219.438-.64.156-1.344.156-2.5 0-3.828-1.64-1.312-1.657-1.312-4.782t1.312-4.781q1.328-1.656 3.828-1.656.703 0 1.344.156.656.156 1.219.453v2.719q-.625-.578-1.219-.844-.594-.281-1.219-.281-1.344 0-2.031 1.078-.688 1.062-.688 3.156 0 2.094.688 3.172.688 1.062 2.031 1.062.625 0 1.219-.265.594-.281 1.219-.86v2.72Z"/><text x="194" y="32.78" fill="#D9B8FF" font-family="Helvetica" font-size="17" textLength="197">kubernetes_namespace</text><rect width="203" height="39.789" x="332" y="106.79" fill="#3D176E" rx="2.5" ry="2.5" style="stroke:#000d19;stroke-width:.5"/><circle cx="347" cy="126.684" r="11" fill="#ADD1B2" style="stroke:#181818;stroke-width:1"/><path d="M349.969 132.325q-.578.297-1.219.438-.64.156-1.344.156-2.5 0-3.828-1.64-1.312-1.657-1.312-4.782t1.312-4.781q1.328-1.656 3.828-1.656.703 0 1.344.156.656.156 1.219.453v2.719q-.625-.579-1.219-.844-.594-.281-1.219-.281-1.344 0-2.031 1.078-.688 1.062-.688 3.156 0 2.094.688 3.172.688 1.062 2.031 1.062.625 0 1.219-.265.594-.281 1.219-.86v2.72Z"/><text x="366" y="132.57" fill="#D9B8FF" font-family="Helvetica" font-size="17" textLength="161">kubernetes_service</text><path fill="none" d="M148.7 147.01c27.02 16.2 65.6 39.35 93.87 56.31" style="stroke:#1a83af;stroke-width:2"/><path fill="#1A83AF" d="m246.36 206.2-5.66-8.06 1.373 5.488-5.488 1.372 9.775 1.2z" style="stroke:#1a83af;stroke-width:2"/><path fill="none" d="M247.3 47.22c-27.02 16.2-65.6 39.35-93.87 56.31" style="stroke:#1a83af;stroke-width:2"/><path fill="#1A83AF" d="m149.64 106.41 9.775-1.2-5.487-1.372 1.371-5.488-5.659 8.06z" style="stroke:#1a83af;stroke-width:2"/><path fill="none" d="M279.5 47.2v153.28" style="stroke:#1a83af;stroke-width:2"/><path fill="#1A83AF" d="m279.5 205.09 4-9-4 4-4-4 4 9z" style="stroke:#1a83af;stroke-width:2"/><path fill="none" d="M309.93 47.22c25.41 16.14 61.67 39.16 88.34 56.1" style="stroke:#1a83af;stroke-width:2"/><path fill="#1A83AF" d="m402.14 106.41-5.46-8.197 1.237 5.52-5.52 1.237 9.743 1.44z" style="stroke:#1a83af;stroke-width:2"/><path fill="none" d="M403.07 147.01c-25.41 16.14-61.67 39.16-88.34 56.1" style="stroke:#1a83af;stroke-width:2"/><path fill="#1A83AF" d="m310.86 206.2 9.743-1.44-5.52-1.237 1.237-5.52-5.46 8.197z" style="stroke:#1a83af;stroke-width:2"/></svg>
